h5_client/assets/icon/cover.svg

<svg height="32" viewBox="0 0 1024 1024" width="32" xmlns="http://www.w3.org/2000/svg"><g fill="#2c2c2c"><path d="m516.85216044 45.90443756c-256.56592035 0-464.55931487 207.94992716-464.55931487 464.5630407 0 256.54977543 207.99463606 464.55931487 464.55931487 464.55931487 256.58082372 0 464.5630407-208.00953823 464.5630407-464.55931487 0-256.61311477-207.98097423-464.5630407-464.5630407-464.5630407zm0 875.63432875c-227.03691457 0-411.07128927-184.04679376-411.07128927-411.07128926 0-32.02898087 4.01759468-63.03959177 10.94499503-92.906398h205.84363893l56.31586518-135.16875731v132.35457716l275.9373061-.00000002v-132.35457714l56.31462361 135.16875612 205.84488172.00000119c6.92740034 29.86680745 10.95989718 60.87741835 10.95989718 92.906398.00124154 227.0244955-184.04927807 411.07128926-411.08991848 411.07128926z"/><path d="m393.032468 578.016553c0 51.228755-15.043624 92.804662-33.627888 92.804662-18.570961 0-33.638121-41.575908-33.638121-92.804662 0-51.257407 15.06716-92.804662 33.638121-92.804662 18.584264-.000001 33.627888 41.547254 33.627888 92.804662z"/><path d="m708.564841 578.016553c0 51.228755-15.07023 92.804662-33.641191 92.804662-18.584264 0-33.638121-41.575908-33.638121-92.804662 0-51.257407 15.053857-92.804662 33.638121-92.804662 18.570961-.000001 33.641191 41.547254 33.641191 92.804662z"/></g></svg>

<?xml version="1.0" standalone="no"?><!DOCTYPE svg PUBLIC "-//W3C//DTD SVG 1.1//EN" "http://www.w3.org/Graphics/SVG/1.1/DTD/svg11.dtd"><svg t="1534920332107" class="icon" style="" viewBox="0 0 1024 1024" version="1.1" xmlns="http://www.w3.org/2000/svg" p-id="26330" xmlns:xlink="http://www.w3.org/1999/xlink" width="32" height="32"><defs><style type="text/css"></style></defs><path d="M516.85216044 45.90443756c-256.56592035 0-464.55931487 207.94992716-464.55931487 464.5630407 0 256.54977543 207.99463606 464.55931487 464.55931487 464.55931487 256.58082372 0 464.5630407-208.00953823 464.5630407-464.55931487C981.41520114 253.85436349 773.43422691 45.90443756 516.85216044 45.90443756zM516.85216044 921.53876631c-227.03691457 0-411.07128927-184.04679376-411.07128927-411.07128926 0-32.02898087 4.01759468-63.03959177 10.94499503-92.906398l205.84363893 0L378.88537031 282.39232174l0 132.35457716 275.9373061-2e-8L654.82267641 282.39232174l56.31462361 135.16875612L916.98218174 417.56107905c6.92740034 29.86680745 10.95989718 60.87741835 10.95989718 92.906398C927.94332046 737.49197255 743.89280085 921.53876631 516.85216044 921.53876631z" p-id="26331" fill="#2c2c2c"></path><path d="M393.032468 578.016553c0 51.228755-15.043624 92.804662-33.627888 92.804662-18.570961 0-33.638121-41.575908-33.638121-92.804662 0-51.257407 15.06716-92.804662 33.638121-92.804662C377.988844 485.21189 393.032468 526.759145 393.032468 578.016553z" p-id="26332" fill="#2c2c2c"></path><path d="M708.564841 578.016553c0 51.228755-15.07023 92.804662-33.641191 92.804662-18.584264 0-33.638121-41.575908-33.638121-92.804662 0-51.257407 15.053857-92.804662 33.638121-92.804662C693.494611 485.21189 708.564841 526.759145 708.564841 578.016553z" p-id="26333" fill="#2c2c2c"></path></svg>
